X:1
T:Man, be joyful
T:Richard Smert
T:Burden 1
T:Man, be joyful
C:Richard Smert
%%score [ 1 [ 2 3 ] ]
L:1/8
Q:1/4=80
M:3/4
K:F
V:1 treble nm="Alto" snm="A"
V:2 treble-8 nm="Tenor 1" snm="T 1"
V:3 treble-8 nm="Tenor 2" snm="T 2"
V:1
 G4 D2 | EF G2 DE | F D2 G2 ^F | !fermata!G2 z2 G2 | G2 FE/D/ CF | EA>GF/E/ D2 | F2 GA>GF/E/ | %7
w: Man, be|joy- * ful, and _|mirth _ thou _|make, for|Christ _ _ _ is _|made _ _ _ _ _|_ _ _ _ _ _|
w: |||||||
w: |||||||
 FE>D D2 ^C | D2 z FGA | =B c2 _B/A/ A2 | G A-A/G/GEF | D2 EG-G/^F/F/E/ | !fermata!G6 || %13
w: |man for _ _|_ _ _ _ _|* thy _ _ _ _ _|_ _ _ _ _ _ _|sake.|
w: ||||||
w: ||||||
"^Burden 2" G4 D2 | E2 F D2 G | A B2 A>GG | F/E/D E G2 ^F | G2 E2 z D | C>D FEA>G | FE>D D2 ^C | %20
w: Man, be|joy- * ful, _|and _ mirth _ _|thou _ _ _ _ _|make, _ for|Christ _ is _ _ _|made _ _ _ _|
w: |||||||
w: |||||||
 D>E FGAc | BG>D G2 ^F | !fermata!G6 ||"^Verse" D4 E2 | F2 GB>AA | GFED>EF/G/ | AB c A2 G | %27
w: man _ for _ _ _|thy _ _ _ _|sake.|Man, be|mer- ry, _ _ _|I _ _ _ _ _ _|thee _ _ _ _|
w: |||He came|fro his _ _ _|Fa- * * * * * *|ther _ _ _ _|
w: |||Look thou|mer- cy _ _ _|e- * * * * * *|ver _ _ _ _|
 !fermata!A2 z2 A2 | A2 c2 BA | A2 GF A2 | B A2 GFE- | E D2 G>E^F | !fermata!G2 z2 G2 | G4 F2 | %34
w: rede, but|be- * ware _|what _ _ mir-|thës _ _ _ _|_ thou _ _ _|make. Christ|is clo-|
w: seat In-|to _ this _|world _ _ to|be _ _ _ _|_ thy _ _ _|make; Man,|be- ware|
w: cry, Now|and _ al- *|way, _ _ ra-|the _ _ _ _|_ and _ _ _|late, And|he will|
 E2 D2 EF | G E2 F A2 | =BcA>FGF- | FE>D D2 ^C | !fermata!D2 z2 A2 | B4 A2 | G2 z GE^F | G2 FED>E | %42
w: thëd _ in _|thy _ _ _|_ _ _ _ _ _||weed, and|he is|made man _ _|_ _ _ _ _|
w: how _ thou _|him _ _ _|_ _ _ _ _ _||treat, For|he is|made man _ _|_ _ _ _ _|
w: set thee won- *|||* * * * der|high, For|he is|made man _ _|_ _ _ _ _|
 F G2 BAF | G>D G2 ^FG- | G6 |] %45
w: for _ _ _ _|thy _ _ _ sake.|_|
w: for _ _ _ _|thy _ _ _ sake.|_|
w: for _ _ _ _|thy _ _ _ sake.|_|
V:2
 z6 | z6 | z6 | z6 | z6 | z6 | z6 | z6 | z6 | z6 | z6 | z6 | z6 || G4 G2 | E2 D2 d2 | d4 c=B | %16
w: |||||||||||||Man, be|joy- * ful,|and mirth _|
w: ||||||||||||||||
w: ||||||||||||||||
 cdce>dc | dB A2 FG | A3 =B c2 | z =B c A2 G | A2 z2 cA | d2 G2 D2 | !fermata!d6 || d4 c2 | %24
w: thou _ _ _ _ _|make, _ _ for _|Christ is _|made _ _ _|man for _|thy _ _|sake.|Man, be|
w: |||||||He came|
w: |||||||Look thou|
 A2 G2 z D | EF G2 B>A | FG A2 B2 | !fermata!A2 z2 D2 | F4 G2 | F2 B2 Ad- | dc B2 A2 | GFGB A2 | %32
w: mer- ry, I|_ _ _ _ _|thee _ _ _|rede, but|be- ware|what _ mir- *|* thës _ _|thou _ _ _ _|
w: fro his Fa-||ther _ _ _|seat In-|to this|world _ to _|_ be _ _|thy _ _ _ _|
w: mer- cy e-||ver _ _ _|cry, Now|and al-|way, _ ra- *|* the _ _|and _ _ _ _|
 !fermata!G2 z2 G2 | B3 c d2 | c2 B G2 A | Bc A2 z d- | d c2 A B2 | AG F2 E2 | !fermata!D2 z2 F2 | %39
w: make. Christ|is _ clo-|thëd _ in _|thy _ _ _|_ _ _ _||weed, and|
w: make; Man,|be- * ware|how _ thou _|him _ _ _|_ _ _ _||treat, For|
w: late, And|he _ will|set thee won- *|||* * * der|high, For|
 G3 D F2 | z B2 G A2 | GB>Ac>Bd- | d/c/B G2 FA | BG B A2 G- | G6 |] %45
w: he _ is|made _ _|man _ _ _ _ _|_ _ _ for _ _|thy _ _ _ sake.|_|
w: he _ is|made _ _|man _ _ _ _ _|_ _ _ for _ _|thy _ _ _ sake.|_|
w: he _ is|made _ _|man _ _ _ _ _|_ _ _ for _ _|thy _ _ _ sake.|_|
V:3
 G4 B2 | A2 G B2 c | d2 BG A2 | !fermata!G2 z2 G2 | B4 A2 | GF A2 GF | D2 EFGA- | AG F2 E2 | %8
w: Man, be|joy- ful, _ and|mirth thou _ _|make, for|Christ is|made _ _ _ _|_ _ _ _ _||
 D4 z F | GAFGAB- | B Ac>Bcd- | dBGB A2 | !fermata!G6 || G4 B2 | c2 d2 G2 | FG D2 FG | AB c2 A2 | %17
w: man for|_ _ _ _ _ _|* thy _ _ _ _|_ _ _ _ _|sake.|Man, be|joy- * ful,|and _ mirth _ _|thou _ _ _|
 G2 z c2 B | A F2 GFA- | AG F2 E2 | z D2 E F2 | G3 B A2 | !fermata!G6 || z6 | z6 | z6 | z6 | z6 | %28
w: make, for _|Christ _ is _ _|_ made _ man|for _ _|thy _ _|sake.||||||
 z6 | z6 | z6 | z6 | z6 | z6 | z6 | z6 | z6 | z6 | z6 | z6 | z6 | z6 | z6 | z6 | z6 |] %45
w: |||||||||||||||||

